X:1
T:The Children’s Savior
T:William Batchelder Bradbury
T:The Children’s Savior
T:Public Domain
T:Public Domain
C:William Batchelder Bradbury
Z:Public Domain
%%score ( 1 2 ) ( 3 4 )
L:1/8
M:4/4
K:Bb
V:1 treble 
V:2 treble 
V:3 bass 
V:4 bass 
V:1
 [Fd]2 [Ec]2 [DB][FA][EG][EB] | [DF]4 [FB]4 | [FA]2 [FB]2 [Fc]2 (BA) | [FB]2 [Ec]2 (D2 F2) | %4
w: 1.~Je- sus is our lov- ing|Sav- ior,|He, our best, our *|stant friend; In *|
w: 2.~Je- sus is the child- ren’s|Sav- ior!|’Twas for them He *|His blood; Died, *|
w: 3.~Je- sus is the child- ren’s|Sav- ior!|“Suf- fer them,” He *|“to come.” If *|
w: 4.~Lov- ing suff- ering, dy- ing|Sav- ior!|Ris- en, glor- ious *|Thy throne, Haste *|
 [Fd]2 [Ec]2 [DB][FA][EG][FB] | [DF]4 [DB]4 | [Ec]2 [Ge]2 [Fd][Ec][DB][CA] | [DB]6 z2 | %8
w: ser- vice life is plea- sure,|For He|lov- eth to the end. Lov-|ing|
w: poor and need- y sin- ners|Might be|re- con- ciled to God. Dy-|ing|
w: seek His face and fa- vor,|They shall|share His heav’n- ly home. Ris-|en|
w: day when ev- ery i- dol|Shall by|truth be o- ver- thrown. And|the|
 [Fd]2 [Fd]2 [Ec]2 [DB]2 | [DF]2 [DF]2 [CE]2 [B,D]2 | [CE]2 [EG]2 [DF][CE][B,D][A,C] | D6 z2 | %12
w: Sav- ior, lov- ing|Sav- ior, Here we|at Thy foot- stool bend, Here|we|
w: Sav- ior! Dy- ing|Sav- ior! Bear- ing|thus our sin- ful load, Bear-|ing|
w: Sav- ior! Ris- en|Sav- ior! Ne- ver|more from Thee to roam, Ne-|ver|
w: king- doms, and the|king- doms Of the|earth to Thee be- long, Of|the|
 [Ec]2 [Ge]2 [Fd][Ec][DB][CA] | [DB]6 z2 |] %14
w: Thy foot- stool bend. * *||
w: our sin- ful load. * *||
w: from Thee to roam. * *||
w: to Thee be- long. * *||
V:2
 x8 | x8 | x6 F2 | x4 d4 | x8 | x8 | x8 | x8 | x8 | x8 | x8 | D6 x2 | x8 | x8 |] %14
w: ||con-|His||||||||at|||
w: ||shed|that||||||||thus|||
w: ||says,|they||||||||more|||
w: ||on|the||||||||earth|||
V:3
 [B,,B,]2 [F,A,]2 [G,B,][D,B,][E,B,][G,B,] | B,4 [B,,D]4 | [F,C]2 [F,D]2 [F,E]2 ([F,D][E,C]) | %3
 [D,B,]2 [C,A,]2 [B,,B,]4 | B,2 [F,A,]2 [G,B,][D,B,][E,B,][G,B,] | B,4 [B,,F,]4 | %6
 [E,G,]2 [C,G,]2 [F,B,]F,F,F, | [B,,F,]6 z2 | z8 | [B,,D]2 [B,,D]2 [F,,C]2 [B,,B,]2 | %10
 C2 E2 DCB,A, | B,6 z2 | [E,G,]2 [C,G,]2 [D,B,][E,G,]F,F, | [B,,F,]6 z2 |] %14
V:4
 x8 | B,4 x4 | x8 | x8 | B,2 x6 | B,4 x4 | x5 F,F,F, | x8 | x8 | x8 | x8 | B,6 x2 | x6 F,F, | x8 |] %14

